server/public/images/feature-app.svg

<?xml version="1.0" encoding="UTF-8"?>
<svg width="48px" height="48px" viewBox="0 0 48 48" version="1.1" xmlns="http://www.w3.org/2000/svg" xmlns:xlink="http://www.w3.org/1999/xlink">
    <!-- Generator: Sketch 53 (72520) - https://sketchapp.com -->
    <title>App</title>
    <desc>Created with Sketch.</desc>
    <g id="Page-1" stroke="none" stroke-width="1" fill="none" fill-rule="evenodd">
        <g id="Rocket-Rides-Icons" transform="translate(-416.000000, -96.000000)" fill="#13B57D">
            <g id="App" transform="translate(416.000000, 96.000000)">
                <path d="M17.1435935,34 L17.1435935,36 L3,36 C1.34314575,36 2.02906125e-16,34.6568542 0,33 L0,3 C-2.02906125e-16,1.34314575 1.34314575,3.04359188e-16 3,0 L21,0 C22.6568542,-3.04359188e-16 24,1.34314575 24,3 L24,18.3094011 L22,19.4641016 L22,3 C22,2.44771525 21.5522847,2 21,2 L17,2 L16.4558482,3.63245553 C16.1836201,4.44913981 15.4193424,5 14.5584816,5 L9.44151844,5 C8.58065762,5 7.81637994,4.44913981 7.54415184,3.63245553 L7,2 L3,2 C2.44771525,2 2,2.44771525 2,3 L2,33 C2,33.5522847 2.44771525,34 3,34 L17.1435935,34 Z" id="Phone,-cropped" fill-rule="nonzero" opacity="0.400000006"></path>
                <path d="M46.8564065,23.4226497 L34,30.8452995 L21.1435935,23.4226497 L33,16.5773503 C33.6188022,16.2200847 34.3811978,16.2200847 35,16.5773503 L46.8564065,23.4226497 L46.8564065,23.4226497 Z M47.8564065,25.1547005 L47.8564065,38.8452995 C47.8564065,39.5598306 47.4752086,40.2200847 46.8564065,40.5773503 L35,47.4226497 L35,32.5773503 L47.8564065,25.1547005 L47.8564065,25.1547005 Z M33,47.4226497 L21.1435935,40.5773503 C20.5247914,40.2200847 20.1435935,39.5598306 20.1435935,38.8452995 L20.1435935,25.1547005 L33,32.5773503 L33,47.4226497 L33,47.4226497 Z" id="Cube,-with-border"></path>
            </g>
        </g>
    </g>
</svg>

<svg width="48" height="48" xmlns="http://www.w3.org/2000/svg"><g fill="#13B57D" fill-rule="evenodd"><path d="M17.144 34v2H3a3 3 0 0 1-3-3V3a3 3 0 0 1 3-3h18a3 3 0 0 1 3 3v15.31l-2 1.154V3a1 1 0 0 0-1-1h-4l-.544 1.632A2 2 0 0 1 14.558 5H9.442a2 2 0 0 1-1.898-1.368L7 2H3a1 1 0 0 0-1 1v30a1 1 0 0 0 1 1h14.144z" fill-rule="nonzero" opacity=".4"/><path d="M46.856 23.423L34 30.845l-12.856-7.422L33 16.577a2 2 0 0 1 2 0l11.856 6.846zm1 1.732v13.69a2 2 0 0 1-1 1.732L35 47.423V32.577l12.856-7.422zM33 47.423l-11.856-6.846a2 2 0 0 1-1-1.732v-13.69L33 32.577v14.846z"/></g></svg>
